logos/nitrc.svg

<?xml version="1.0" encoding="UTF-8"?>
<!DOCTYPE svg PUBLIC "-//W3C//DTD SVG 1.1//EN" "http://www.w3.org/Graphics/SVG/1.1/DTD/svg11.dtd">
<svg xmlns="http://www.w3.org/2000/svg" version="1.1" width="400px" height="84px" style="shape-rendering:geometricPrecision; text-rendering:geometricPrecision; image-rendering:optimizeQuality; fill-rule:evenodd; clip-rule:evenodd" xmlns:xlink="http://www.w3.org/1999/xlink">
<g><path style="opacity:0.847" fill="#000000" d="M 31.5,14.5 C 30.209,14.2627 29.209,14.596 28.5,15.5C 26.4471,15.4021 24.7804,16.0687 23.5,17.5C 22.5084,17.3284 21.8417,17.6618 21.5,18.5C 20.5084,18.3284 19.8417,18.6618 19.5,19.5C 17.9731,19.427 16.9731,20.0937 16.5,21.5C 14.1048,23.4222 11.4381,24.5889 8.5,25C 16.9947,15.0831 27.6613,8.74976 40.5,6C 54.6682,3.52659 68.6682,4.19325 82.5,8C 101.755,15.6537 107.255,28.8204 99,47.5C 97.3903,49.731 95.557,51.731 93.5,53.5C 93.1667,53.1667 92.8333,52.8333 92.5,52.5C 100.875,38.1148 97.8754,26.6148 83.5,18C 66.5334,9.52339 49.2001,8.35672 31.5,14.5 Z M 28.5,15.5 C 27.2196,16.9313 25.5529,17.5979 23.5,17.5C 24.7804,16.0687 26.4471,15.4021 28.5,15.5 Z M 19.5,19.5 C 19.0269,20.9063 18.0269,21.573 16.5,21.5C 16.9731,20.0937 17.9731,19.427 19.5,19.5 Z"/></g>
<g><path style="opacity:0.755" fill="#951a49" d="M 90.5,49.5 C 90.5,49.1667 90.5,48.8333 90.5,48.5C 91.1667,48.5 91.5,48.1667 91.5,47.5C 92.1667,47.5 92.5,47.1667 92.5,46.5C 93.4025,43.6085 93.7359,40.6085 93.5,37.5C 93.5,36.8333 93.1667,36.5 92.5,36.5C 92.5,36.1667 92.5,35.8333 92.5,35.5C 92.6716,34.5084 92.3382,33.8417 91.5,33.5C 91.5,32.8333 91.1667,32.5 90.5,32.5C 90.5,32.1667 90.5,31.8333 90.5,31.5C 90.5,30.8333 90.1667,30.5 89.5,30.5C 89.5,29.8333 89.1667,29.5 88.5,29.5C 88.5,28.8333 88.1667,28.5 87.5,28.5C 87.5,27.8333 87.1667,27.5 86.5,27.5C 80.056,21.6166 72.3894,18.1166 63.5,17C 49.6451,14.7154 36.6451,17.0487 24.5,24C 11.6019,34.3024 11.2686,44.969 23.5,56C 26.4799,58.324 29.8133,59.824 33.5,60.5C 33.8417,61.3382 34.5084,61.6716 35.5,61.5C 35.8333,61.5 36.1667,61.5 36.5,61.5C 36.8417,62.3382 37.5084,62.6716 38.5,62.5C 38.8333,62.5 39.1667,62.5 39.5,62.5C 40.209,63.404 41.209,63.7373 42.5,63.5C 43.5,63.5 44.5,63.5 45.5,63.5C 46.209,64.404 47.209,64.7373 48.5,64.5C 50.1667,64.5 51.8333,64.5 53.5,64.5C 51.5987,65.7179 46.9321,65.8846 39.5,65C 29.2122,63.5215 20.2122,59.3549 12.5,52.5C 5.85049,45.0913 5.01716,37.0913 10,28.5C 12.3722,26.2968 14.5389,23.9635 16.5,21.5C 18.0269,21.573 19.0269,20.9063 19.5,19.5C 20.4916,19.6716 21.1583,19.3382 21.5,18.5C 22.4916,18.6716 23.1583,18.3382 23.5,17.5C 25.5529,17.5979 27.2196,16.9313 28.5,15.5C 29.791,15.7373 30.791,15.404 31.5,14.5C 50.0012,10.1991 67.6679,12.3658 84.5,21C 96.7876,29.7418 98.621,40.2418 90,52.5C 89.5304,51.4232 89.6971,50.4232 90.5,49.5 Z"/></g>
<g><path style="opacity:0.868" fill="#2a328f" d="M 347.5,14.5 C 360.561,14.0777 373.561,14.5777 386.5,16C 389.583,16.786 391.749,18.6193 393,21.5C 394.108,25.0863 394.608,28.753 394.5,32.5C 392.167,32.5 389.833,32.5 387.5,32.5C 388.016,27.8476 386.349,24.3476 382.5,22C 370.833,21.3333 359.167,21.3333 347.5,22C 344.337,23.4798 342.504,25.9798 342,29.5C 341.124,38.2296 341.458,46.8963 343,55.5C 344.214,57.0488 345.714,58.2155 347.5,59C 359.5,59.6667 371.5,59.6667 383.5,59C 385.333,58.5 386.5,57.3333 387,55.5C 387.497,53.1902 387.663,50.8568 387.5,48.5C 389.833,48.5 392.167,48.5 394.5,48.5C 394.665,52.1817 394.499,55.8484 394,59.5C 392.833,62 391,63.8333 388.5,65C 374.556,66.595 360.556,66.9283 346.5,66C 340.447,64.9471 336.613,61.4471 335,55.5C 334.333,45.5 334.333,35.5 335,25.5C 336.895,19.0972 341.062,15.4305 347.5,14.5 Z"/></g>
<g><path style="opacity:0.9" fill="#2a328f" d="M 113.5,15.5 C 117.514,15.3345 121.514,15.5012 125.5,16C 140,29.8333 154.5,43.6667 169,57.5C 169.5,43.504 169.667,29.504 169.5,15.5C 171.833,15.5 174.167,15.5 176.5,15.5C 176.5,32.1667 176.5,48.8333 176.5,65.5C 172.486,65.6655 168.486,65.4988 164.5,65C 150.622,50.8226 136.456,36.9893 122,23.5C 121.5,37.496 121.333,51.496 121.5,65.5C 118.833,65.5 116.167,65.5 113.5,65.5C 113.5,48.8333 113.5,32.1667 113.5,15.5 Z"/></g>
<g><path style="opacity:0.84" fill="#2a328f" d="M 188.5,15.5 C 191.167,15.5 193.833,15.5 196.5,15.5C 196.5,32.1667 196.5,48.8333 196.5,65.5C 193.833,65.5 191.167,65.5 188.5,65.5C 188.5,48.8333 188.5,32.1667 188.5,15.5 Z"/></g>
<g><path style="opacity:0.909" fill="#2a328f" d="M 203.5,15.5 C 222.833,15.5 242.167,15.5 261.5,15.5C 261.5,17.5 261.5,19.5 261.5,21.5C 253.167,21.5 244.833,21.5 236.5,21.5C 236.5,36.1667 236.5,50.8333 236.5,65.5C 233.833,65.5 231.167,65.5 228.5,65.5C 228.5,50.8333 228.5,36.1667 228.5,21.5C 220.167,21.5 211.833,21.5 203.5,21.5C 203.5,19.5 203.5,17.5 203.5,15.5 Z"/></g>
<g><path style="opacity:0.871" fill="#2a328f" d="M 267.5,15.5 C 283.503,15.3334 299.503,15.5001 315.5,16C 322.921,17.9983 325.921,22.8316 324.5,30.5C 325.579,36.0024 323.912,40.3358 319.5,43.5C 321.995,45.1492 323.495,47.4826 324,50.5C 324.499,55.4889 324.666,60.4889 324.5,65.5C 321.833,65.5 319.167,65.5 316.5,65.5C 316.666,60.4889 316.499,55.4889 316,50.5C 315.5,48.6667 314.333,47.5 312.5,47C 300.171,46.5001 287.838,46.3335 275.5,46.5C 275.5,52.8333 275.5,59.1667 275.5,65.5C 272.833,65.5 270.167,65.5 267.5,65.5C 267.5,48.8333 267.5,32.1667 267.5,15.5 Z M 275.5,21.5 C 286.838,21.3335 298.172,21.5001 309.5,22C 315.325,22.1596 317.992,25.1596 317.5,31C 317.479,34.7671 315.813,37.4337 312.5,39C 300.171,39.4999 287.838,39.6665 275.5,39.5C 275.5,33.5 275.5,27.5 275.5,21.5 Z"/></g>
<g><path style="opacity:0.738" fill="#f9de06" d="M 86.5,27.5 C 87.1667,27.5 87.5,27.8333 87.5,28.5C 88.1667,28.5 88.5,28.8333 88.5,29.5C 89.1667,29.5 89.5,29.8333 89.5,30.5C 90.1667,30.5 90.5,30.8333 90.5,31.5C 90.5,31.8333 90.5,32.1667 90.5,32.5C 91.1667,32.5 91.5,32.8333 91.5,33.5C 91.3284,34.4916 91.6618,35.1583 92.5,35.5C 92.5,35.8333 92.5,36.1667 92.5,36.5C 93.1667,36.5 93.5,36.8333 93.5,37.5C 93.7359,40.6085 93.4025,43.6085 92.5,46.5C 92.1667,46.5 91.8333,46.5 91.5,46.5C 91.5,45.5 91.5,44.5 91.5,43.5C 92.8333,42.8333 92.8333,42.1667 91.5,41.5C 91.3964,39.2972 90.7298,37.2972 89.5,35.5C 89.5,34.8333 89.1667,34.5 88.5,34.5C 88.5,33.8333 88.1667,33.5 87.5,33.5C 87.5,32.8333 87.1667,32.5 86.5,32.5C 86.5,31.8333 86.1667,31.5 85.5,31.5C 85.5,30.8333 85.1667,30.5 84.5,30.5C 84.1583,29.6618 83.4916,29.3284 82.5,29.5C 82.5,28.8333 82.1667,28.5 81.5,28.5C 81.1583,27.6618 80.4916,27.3284 79.5,27.5C 70.4562,22.9016 60.7895,21.4016 50.5,23C 41.9042,24.2154 34.4042,27.7154 28,33.5C 23.1248,40.3916 23.4582,47.0583 29,53.5C 36.4157,59.0199 44.5824,62.6865 53.5,64.5C 51.8333,64.5 50.1667,64.5 48.5,64.5C 47.791,63.596 46.791,63.2627 45.5,63.5C 44.5,63.5 43.5,63.5 42.5,63.5C 41.791,62.596 40.791,62.2627 39.5,62.5C 39.1667,62.5 38.8333,62.5 38.5,62.5C 38.1583,61.6618 37.4916,61.3284 36.5,61.5C 36.1667,61.5 35.8333,61.5 35.5,61.5C 35.1583,60.6618 34.4916,60.3284 33.5,60.5C 26.829,57.3282 21.9957,52.3282 19,45.5C 18.0018,36.9959 21.1685,30.4959 28.5,26C 48.1254,15.9614 67.4588,16.4614 86.5,27.5 Z"/></g>
<g><path style="opacity:0.713" fill="#2a328f" d="M 79.5,27.5 C 79.8417,28.3382 80.5084,28.6716 81.5,28.5C 82.1667,28.5 82.5,28.8333 82.5,29.5C 82.8417,30.3382 83.5084,30.6716 84.5,30.5C 85.1667,30.5 85.5,30.8333 85.5,31.5C 86.1667,31.5 86.5,31.8333 86.5,32.5C 87.1667,32.5 87.5,32.8333 87.5,33.5C 88.1667,33.5 88.5,33.8333 88.5,34.5C 89.1667,34.5 89.5,34.8333 89.5,35.5C 90.7298,37.2972 91.3964,39.2972 91.5,41.5C 91.5,42.1667 91.5,42.8333 91.5,43.5C 91.5,44.5 91.5,45.5 91.5,46.5C 91.5,46.8333 91.5,47.1667 91.5,47.5C 90.8333,47.5 90.5,47.8333 90.5,48.5C 90.5,48.8333 90.5,49.1667 90.5,49.5C 91.1941,44.0859 89.5274,39.2526 85.5,35C 71.7456,26.2795 57.4123,25.2795 42.5,32C 31.9084,38.5341 30.9084,46.2008 39.5,55C 45.0998,58.312 51.0998,60.6453 57.5,62C 46.6235,62.2632 37.4569,58.4299 30,50.5C 26.3139,39.7034 29.8139,32.2034 40.5,28C 53.4453,23.5032 66.4453,23.3365 79.5,27.5 Z"/></g>
<g><path style="opacity:0.801" fill="#000000" d="M 69.5,39.5 C 78.519,51.5236 76.8523,62.0236 64.5,71C 47.1238,80.0569 30.1238,79.3903 13.5,69C 4.83974,62.682 2.00641,54.5153 5,44.5C 5.17291,48.7185 6.17291,52.7185 8,56.5C 22.7965,71.329 39.9632,74.829 59.5,67C 71.0827,60.7471 74.4161,51.5804 69.5,39.5 Z"/></g>
</svg>

<svg xmlns="http://www.w3.org/2000/svg" width="400" height="84" style="shape-rendering:geometricPrecision;text-rendering:geometricPrecision;image-rendering:optimizeQuality;fill-rule:evenodd;clip-rule:evenodd"><path style="opacity:.847" d="M31.5 14.5c-1.291-.237-2.291.096-3 1-2.053-.098-3.72.569-5 2-.992-.172-1.658.162-2 1-.992-.172-1.658.162-2 1-1.527-.073-2.527.594-3 2-2.395 1.922-5.062 3.089-8 3.5 8.495-9.917 19.161-16.25 32-19 14.168-2.473 28.168-1.807 42 2 19.255 7.654 24.755 20.82 16.5 39.5a34.522 34.522 0 0 1-5.5 6l-1-1c8.375-14.385 5.375-25.885-9-34.5-16.967-8.477-34.3-9.643-52-3.5zm-3 1c-1.28 1.431-2.947 2.098-5 2 1.28-1.431 2.947-2.098 5-2zm-9 4c-.473 1.406-1.473 2.073-3 2 .473-1.406 1.473-2.073 3-2z"/><path style="opacity:.755" fill="#951a49" d="M90.5 49.5v-1c.667 0 1-.333 1-1 .667 0 1-.333 1-1 .903-2.892 1.236-5.892 1-9 0-.667-.333-1-1-1v-1c.172-.992-.162-1.658-1-2 0-.667-.333-1-1-1v-1c0-.667-.333-1-1-1 0-.667-.333-1-1-1 0-.667-.333-1-1-1 0-.667-.333-1-1-1-6.444-5.883-14.11-9.383-23-10.5-13.855-2.285-26.855.049-39 7-12.898 10.302-13.231 20.969-1 32 2.98 2.324 6.313 3.824 10 4.5.342.838 1.008 1.172 2 1h1c.342.838 1.008 1.172 2 1h1c.709.904 1.709 1.237 3 1h3c.709.904 1.709 1.237 3 1h5c-1.901 1.218-6.568 1.385-14 .5-10.288-1.478-19.288-5.645-27-12.5-6.65-7.409-7.483-15.409-2.5-24a63.67 63.67 0 0 0 6.5-7c1.527.073 2.527-.594 3-2 .992.172 1.658-.162 2-1 .992.172 1.658-.162 2-1 2.053.098 3.72-.569 5-2 1.291.237 2.291-.096 3-1 18.501-4.3 36.168-2.134 53 6.5 12.288 8.742 14.121 19.242 5.5 31.5-.47-1.077-.303-2.077.5-3z"/><path style="opacity:.868" fill="#2a328f" d="M347.5 14.5a275.114 275.114 0 0 1 39 1.5c3.083.786 5.249 2.62 6.5 5.5a33.725 33.725 0 0 1 1.5 11h-7c.516-4.652-1.151-8.152-5-10.5a306.485 306.485 0 0 0-35 0c-3.163 1.48-4.996 3.98-5.5 7.5a93.664 93.664 0 0 0 1 26 11.529 11.529 0 0 0 4.5 3.5c12 .667 24 .667 36 0 1.833-.5 3-1.667 3.5-3.5.497-2.31.663-4.643.5-7h7a60.93 60.93 0 0 1-.5 11c-1.167 2.5-3 4.333-5.5 5.5a233.453 233.453 0 0 1-42 1c-6.053-1.053-9.887-4.553-11.5-10.5-.667-10-.667-20 0-30 1.895-6.403 6.062-10.07 12.5-11z"/><path style="opacity:.9" fill="#2a328f" d="M113.5 15.5a72.442 72.442 0 0 1 12 .5L169 57.5c.5-13.996.667-27.996.5-42h7v50a72.442 72.442 0 0 1-12-.5A1312.66 1312.66 0 0 0 122 23.5a881.746 881.746 0 0 0-.5 42h-8v-50z"/><path style="opacity:.84" fill="#2a328f" d="M188.5 15.5h8v50h-8v-50z"/><path style="opacity:.909" fill="#2a328f" d="M203.5 15.5h58v6h-25v44h-8v-44h-25v-6z"/><path style="opacity:.871" fill="#2a328f" d="M267.5 15.5c16.003-.167 32.003 0 48 .5 7.421 1.998 10.421 6.832 9 14.5 1.079 5.502-.588 9.836-5 13 2.495 1.65 3.995 3.983 4.5 7 .499 4.989.666 9.989.5 15h-8a112.97 112.97 0 0 0-.5-15c-.5-1.833-1.667-3-3.5-3.5a684.961 684.961 0 0 0-37-.5v19h-8v-50zm8 6c11.338-.166 22.672 0 34 .5 5.825.16 8.492 3.16 8 9-.021 3.767-1.687 6.434-5 8-12.329.5-24.662.666-37 .5v-18z"/><path style="opacity:.738" fill="#f9de06" d="M86.5 27.5c.667 0 1 .333 1 1 .667 0 1 .333 1 1 .667 0 1 .333 1 1 .667 0 1 .333 1 1v1c.667 0 1 .333 1 1-.172.992.162 1.658 1 2v1c.667 0 1 .333 1 1 .236 3.108-.097 6.108-1 9h-1v-3c1.333-.667 1.333-1.333 0-2-.104-2.203-.77-4.203-2-6 0-.667-.333-1-1-1 0-.667-.333-1-1-1 0-.667-.333-1-1-1 0-.667-.333-1-1-1 0-.667-.333-1-1-1-.342-.838-1.008-1.172-2-1 0-.667-.333-1-1-1-.342-.838-1.008-1.172-2-1-9.044-4.598-18.71-6.098-29-4.5-8.596 1.215-16.096 4.715-22.5 10.5-4.875 6.892-4.542 13.558 1 20 7.416 5.52 15.582 9.187 24.5 11h-5c-.709-.904-1.709-1.237-3-1h-3c-.709-.904-1.709-1.237-3-1h-1c-.342-.838-1.008-1.172-2-1h-1c-.342-.838-1.008-1.172-2-1-6.671-3.172-11.504-8.172-14.5-15-.998-8.504 2.169-15.004 9.5-19.5 19.625-10.039 38.959-9.539 58 1.5z"/><path style="opacity:.713" fill="#2a328f" d="M79.5 27.5c.342.838 1.008 1.172 2 1 .667 0 1 .333 1 1 .342.838 1.008 1.172 2 1 .667 0 1 .333 1 1 .667 0 1 .333 1 1 .667 0 1 .333 1 1 .667 0 1 .333 1 1 .667 0 1 .333 1 1 1.23 1.797 1.896 3.797 2 6v6c-.667 0-1 .333-1 1v1c.694-5.414-.973-10.247-5-14.5-13.754-8.72-28.088-9.72-43-3-10.592 6.534-11.592 14.2-3 23a59.202 59.202 0 0 0 18 7c-10.877.263-20.043-3.57-27.5-11.5-3.686-10.797-.186-18.297 10.5-22.5 12.945-4.497 25.945-4.663 39-.5z"/><path style="opacity:.801" d="M69.5 39.5c9.019 12.024 7.352 22.524-5 31.5-17.376 9.057-34.376 8.39-51-2C4.84 62.682 2.006 54.515 5 44.5a30.132 30.132 0 0 0 3 12C22.797 71.329 39.963 74.829 59.5 67c11.583-6.253 14.916-15.42 10-27.5z"/></svg>
